src/styles/Logos/assets/subscriptions-2018/subscriptions-plus-no_text.svg

<svg xmlns="http://www.w3.org/2000/svg" viewBox="0 0 34.9 34"><linearGradient id="a" gradientUnits="userSpaceOnUse" x1="1.006" y1="16.385" x2="33.862" y2="16.385" gradientTransform="matrix(1 0 0 -1 0 33.38)"><stop offset=".006" stop-color="#ffcc06"/><stop offset=".498" stop-color="#f8a317"/><stop offset="1" stop-color="#f17a28"/></linearGradient><path d="M30.9 7.5L10.4 2.1c-.2-.1-.5-.1-.7-.1-1.2 0-2.2.8-2.5 2L2.1 23.3c-.4 1.4.5 2.8 1.9 3.2l20.5 5.4c.2.1.5.1.7.1 1.2 0 2.2-.8 2.5-2l5.1-19.4c.3-1.3-.5-2.8-1.9-3.1z" fill="url(#a)"/><path d="M34.1 7.5c-.6-1-1.6-1.7-2.8-2L10.9.2c-.4-.1-.8-.2-1.2-.2-2.1 0-4 1.5-4.5 3.5l-5 19.3c-.7 2.4.8 4.9 3.3 5.6L24 33.8c.4.1.8.2 1.2.2 2 0 3.9-1.4 4.4-3.4l5.1-19.4c.3-1.3.1-2.6-.6-3.7z" fill="#fff"/><linearGradient id="b" gradientUnits="userSpaceOnUse" x1="2.004" y1="16.995" x2="32.862" y2="16.995"><stop offset=".006" stop-color="#ffcc06"/><stop offset="1" stop-color="#f17a28"/></linearGradient><path d="M32.8 10.6L27.7 30c-.3 1.2-1.4 2-2.5 2-.2 0-.4 0-.7-.1L4 26.5c-1.4-.4-2.3-1.8-1.9-3.2L7.2 4c.3-1.2 1.3-2 2.5-2 .2 0 .5 0 .7.1l20.5 5.4c1.4.3 2.2 1.8 1.9 3.1z" fill="url(#b)"/></svg>

<?xml version="1.0" encoding="utf-8"?>
<!-- Generator: Adobe Illustrator 20.1.0, SVG Export Plug-In . SVG Version: 6.00 Build 0)  -->
<svg version="1.1" id="Layer_1" xmlns="http://www.w3.org/2000/svg" xmlns:xlink="http://www.w3.org/1999/xlink" x="0px" y="0px"
	 viewBox="0 0 34.9 34" style="enable-background:new 0 0 34.9 34;" xml:space="preserve">
<style type="text/css">
	.st0{fill:url(#SVGID_1_);}
	.st1{fill:#FFFFFF;}
	.st2{fill:url(#SVGID_2_);}
</style>
<g>
	
		<linearGradient id="SVGID_1_" gradientUnits="userSpaceOnUse" x1="1.0065" y1="16.3854" x2="33.8624" y2="16.3854" gradientTransform="matrix(1 0 0 -1 0 33.3809)">
		<stop  offset="6.000000e-03" style="stop-color:#FFCC06"/>
		<stop  offset="0.498" style="stop-color:#F8A317"/>
		<stop  offset="1" style="stop-color:#F17A28"/>
	</linearGradient>
	<path class="st0" d="M30.9,7.5L10.4,2.1C10.2,2,9.9,2,9.7,2C8.5,2,7.5,2.8,7.2,4L2.1,23.3c-0.4,1.4,0.5,2.8,1.9,3.2l20.5,5.4
		C24.7,32,25,32,25.2,32c1.2,0,2.2-0.8,2.5-2l5.1-19.4C33.1,9.3,32.3,7.8,30.9,7.5z"/>
	<path class="st1" d="M34.1,7.5c-0.6-1-1.6-1.7-2.8-2L10.9,0.2C10.5,0.1,10.1,0,9.7,0c-2.1,0-4,1.5-4.5,3.5L0.2,22.8
		c-0.7,2.4,0.8,4.9,3.3,5.6L24,33.8c0.4,0.1,0.8,0.2,1.2,0.2c2,0,3.9-1.4,4.4-3.4l5.1-19.4l0,0l0,0C35,9.9,34.8,8.6,34.1,7.5z"/>
	<linearGradient id="SVGID_2_" gradientUnits="userSpaceOnUse" x1="2.0041" y1="16.9955" x2="32.8623" y2="16.9955">
		<stop  offset="6.000000e-03" style="stop-color:#FFCC06"/>
		<stop  offset="1" style="stop-color:#F17A28"/>
	</linearGradient>
	<path class="st2" d="M32.8,10.6L27.7,30c-0.3,1.2-1.4,2-2.5,2c-0.2,0-0.4,0-0.7-0.1L4,26.5c-1.4-0.4-2.3-1.8-1.9-3.2L7.2,4
		c0.3-1.2,1.3-2,2.5-2c0.2,0,0.5,0,0.7,0.1l20.5,5.4C32.3,7.8,33.1,9.3,32.8,10.6z"/>
</g>
</svg>
